Adwaita++-Light/panel/16/discord-tray-unread.svg

<svg height="16" width="16" xmlns="http://www.w3.org/2000/svg">
  <path d="m6.3789062 2s-1.7604667-.042953-3.625 1.4980469c-1.86462212 1.5411-2.7539062 4.7311716-2.7539062 9.3261721 0 0 2.1383111 2.074781 5 2.175781 0 0 .6115556-.452 1-1-1.6444445-.547-2.5605469-2.367187-2.5605469-2.367188 1.5152.953002 2.9894357 1.350188 4.5605469 1.367188 1.571111-.017 3.045347-.414186 4.560547-1.367188 0 .000001-.916102 1.820188-2.560547 2.367188.388444.548 1 1 1 1 2.861689-.101 5-2.175781 5-2.175781 0-4.5950005-.889284-7.7850721-2.753906-9.3261721-1.864534-1.5409999-3.6250002-1.4980469-3.6250002-1.4980469l-.1289063.171875c2.3307555.7347 3.3906245 2.3730469 3.3906245 2.3730469s-.28456-.1718438-.763671-.4023438c-1.453156-.7848-2.785808-1.1425781-4.119141-1.1425781-1.3333334 0-2.6659851.3577781-4.1191406 1.1425781-.4791111.2305-.7636719.4023438-.7636719.4023438s1.0598695-1.6383469 3.390625-2.3730469zm-.8789062 6c.8381317 0 1.5149989.668 1.5 1.5 0 .832-.6618683 1.5-1.5 1.5-.8233329 0-1.5-.668-1.5-1.5s.6619684-1.5 1.5-1.5zm5 0c.838032 0 1.5.668 1.5 1.5s-.676667 1.5-1.5 1.5c-.838132 0-1.5-.668-1.5-1.5-.0149989-.832.661868-1.5 1.5-1.5z" fill="#444"/>
  <circle cx="14.5" cy="1.5" fill="#4285f4" r="1.5"/>
</svg>

<svg xmlns="http://www.w3.org/2000/svg" width="16" height="16" version="1.1">
 <defs>
  <style id="current-color-scheme" type="text/css">
   .ColorScheme-Text { color:#444444; } .ColorScheme-Highlight { color:#4285f4; }
  </style>
 </defs>
 <path style="fill:currentColor" class="ColorScheme-Text" d="M 6.3789062 2 C 6.3789062 2 4.6184395 1.957047 2.7539062 3.4980469 C 0.88928408 5.0391469 5.9211895e-16 8.2292185 0 12.824219 C 0 12.824219 2.1383111 14.899 5 15 C 5 15 5.6115556 14.548 6 14 C 4.3555555 13.453 3.4394531 11.632813 3.4394531 11.632812 C 4.9546531 12.585814 6.4288888 12.983 8 13 C 9.571111 12.983 11.045347 12.585814 12.560547 11.632812 C 12.560547 11.632813 11.644445 13.453 10 14 C 10.388444 14.548 11 15 11 15 C 13.861689 14.899 16 12.824219 16 12.824219 C 16 8.2292185 15.110716 5.0391469 13.246094 3.4980469 C 11.38156 1.957047 9.6210938 2 9.6210938 2 L 9.4921875 2.171875 C 11.822943 2.906575 12.882812 4.5449219 12.882812 4.5449219 C 12.882812 4.5449219 12.598252 4.3730781 12.119141 4.1425781 C 10.665985 3.3577781 9.333333 3 8 3 C 6.6666666 3 5.3340149 3.3577781 3.8808594 4.1425781 C 3.4017483 4.3730781 3.1171875 4.5449219 3.1171875 4.5449219 C 3.1171875 4.5449219 4.177057 2.906575 6.5078125 2.171875 L 6.3789062 2 z M 5.5 8 C 6.3381317 8 7.0149989 8.668 7 9.5 C 7 10.332 6.3381317 11 5.5 11 C 4.6766671 11 4 10.332 4 9.5 C 4 8.668 4.6619684 8 5.5 8 z M 10.5 8 C 11.338032 8 12 8.668 12 9.5 C 12 10.332 11.323333 11 10.5 11 C 9.661868 11 9 10.332 9 9.5 C 8.9850011 8.668 9.661868 8 10.5 8 z"/>
 <circle style="fill:currentColor" class="ColorScheme-Highlight" cx="14.5" cy="1.5" r="1.5"/>
</svg>
